X:1
T:Pusnakts  gaidās
T:Harm.  M. Celminskis
T:Pusnakts  gaidās
C:Harm.  M. Celminskis
%%score [ ( 1 2 ) ( 3 4 ) ]
L:1/8
M:6/8
K:D
V:1 treble nm="P1"
V:2 treble 
V:3 bass nm="P2"
V:4 bass 
V:1
!pp!"^Tranquillo" A[Q:3/8=40]BA!<(! ABA | A2!<)! d A2 z | A2 G G2 F |!>(! A2 F F!>)!E z :: %4
!mf!!<(! E2"^c r e s c e n d o" G F2 A |1 G2 B!<)! A3 | A2 F B2 G | F2 E F2 z :|2!f! d2 c d2 B | %9
 e2 d !fermata!d3 |] %10
V:2
 F2 F E2 E | F2 F F2 x | D2 D D2 D | D2 D DC x :: C2 C D2 D |1 D2 G E3 | D2 D G2 E | D2 C D2 x :|2 %8
w: 1. si bal- tas|pār- slas krīt,|vieg- la snie- ga|se- ga klā- jas.|||||
w: Ska- ļie trok- šņi|tā- lu mīt,|mie- ra vēs- ma|li- di- nā- jas.|1. dis prie- kā|ga- vi- lē:|Jē- zus nā- cis|pa- sau- lē!|
w: 2. ga gais- ma|sir- dīs līst,|pil- dot tās ar|lai- mes jaus- mu.|2. dis prie- kā|at- ve- ram|pre- tī pus- nakts|brī- nu- mam.|
w: Zva- nu ska- ņas|tā- lēs klīst,|vēs- tot mī- las|rī- ta aus- mu.|3. si ma- nā|dvē- se- lē|tā kā Bet- lēm`s|si- lī- tē!|
w: 3. ļais Jē- zu,|pie mums nāc,|mēs Tev sir- dīs|tai- sām vie- tu.|||||
w: Pes- tī- ša- nas|dar- bu sāc,|da- ri mū- su|dzī- vi svē- tu!|||||
 A2 A A2 G | G2 F F3 |] %10
w: ||
w: Jē- zus nā- cis|pa- sau- lē!|
w: pre- tī pus- nakts|brī- nu- mam.|
w: tā kā Bet- lēm`s|si- lī- tē!|
w: ||
w: ||
V:3
 D3 C3 | =C6 | B,2 B, _B,2 A, | F,2 A, ^G,A, z :: A,2 A, A,2 A, |1 B,2 D C3 | D2 B, D2 B, | %7
w: 1. slas|krīt,||||||
w: trok- šņi|mīt,||||||
w: 2. ma|līst,||||||
w: ska- ņas|klīst,||||||
w: 3. zu,|nāc,||||||
 A,2 A, A,2 z :|2 D2 E D2 D | C2 D D3 |] %10
w: |||
w: |||
w: |||
w: |||
w: |||
V:4
 z6 | z6 | z6 | z6 :: A,,2 E, D,2 F, |1 E,2 E, (A,2 G,) | F,2 B, E,2 G, | A,2 A,, D,2 x :|2 %8
 F,2 G, F,2 E, | A,2 D, !fermata!D,3 |] %10

